X: 1
T:Garrisdale
M:3/4
L:1/8
Q:80
C:Andrew Berthoff
S:March
K:HP
|: {Gdc}d3/2e/2{gfg}f2{AGAG}A2|
{gf}g{a}e{gfg}f2{Gdc}d2|
{g}e3/2f/2{gf}g2{AGAG}A2|  !
{gf}ga{fg}f2{e}f2{g}f3/2g/2{ag}a2{AGAG}A2|
{gBd}B{e}A{GdG}B2{Gdc}d2|
{g}e3/2f/2{gf}g2{AGAG}A2|  !
{gf}g{a}c{Gdc}d2{gdG}d2:| |:
{g}f3/2g/2{ag}a2{AGAG}A2|
{ag}a3/2f/2{gef}e2{A}e2|  !
{g}e3/2f/2{gf}g2{AGAG}A2|
{gf}ga{fg}f2{e}f2{g}f3/2g/2{ag}a2{AGAG}A2|
a3/4g/4{a}f3/4d/4{gef}e2{AGAG}A2|  !
{g}e3/2f/2{gf}g2{AGAG}A2|
{gf}g{a}c{Gdc}d2{gdG}d2:|
